X:1
T:Title
%%score 1 2 3 4
L:1/8
Q:1/4=424
M:4/2
K:C
V:1 treble nm="MusicXML Part"
V:2 treble-8 nm="MusicXML Part"
V:3 treble-8 nm="MusicXML Part"
V:4 bass nm="MusicXML Part"
V:1
 G4 G4 A8 | G4 F2 E2 F4 G4 | G4 F4 G8 | G8 E4 E4 | E8 E4 F4- | F4 F4 E8 | E8 A4 A4 | %7
w: 1.O Ma- ri-|a * * * di-|a- na stel-|la, che ri-|lu- ci piú|* che´l so-|le, La mia|
w: 2.O Ma- ri-|a * * * di|sol ve- sti-|ta del- le|stel- le co-|* ro- na-|ta, del- la|
w: |||||||
w: 3.O Ma- ri-|a * * * quel|tuo bel man-|to, che tu|por- tial san-|* to cho-|ro, cam- poa-|
w: |||||||
w: |||||||
 G4 F2 E2 F4 G4- | G4 F4 G8 | G8 E4 E4 | E4 D2 C2 B,4 C4 | C6 B,2 C8 | C16 || G4 G4 A8 | %14
w: lin- * * gua dir|* non po-|le, O Ma-|ri- * * a quan-|to sei bel-|la.||
w: lu- * * na sei|* cal- za-|ta, spec- chio|sei * * * di|no- stra vi-|ta.||
w: ||||||4.O Ma- ri-|
w: zur- ro, * e stel-|* le do-|ro, è fio-|ri- * * * to|tut- to quan-|to.||
w: ||||||5.O Ma- ri-|
w: ||||||6.O Ma- ri-|
 G4 F2 E2 F4 G4 | G4 F4 G8 | G8 E4 E4 | E8 E4 F4- | F4 F4 E8 | E8 A4 A4 | G4 F2 E2 F4 G4- | %21
w: |||||||
w: |||||||
w: a * * * quel|tuo bel vi-|so con que-|gl'oc- chiho- ne-|* stie san-|ti, per te|glian- * * gel tut-|
w: |||||||
w: a * * * tua|bion- da te-|sta co' ca-|pe- gli de|* fin o-|ro ri- sguar-|dan- do * un tal|
w: a * * * del|ciel re- gi-|na, Ma- dre|del no- stro|* Si- gno-|re, Spe- ran-|za * * del pec-|
 G4 F4 G8 | G8 E4 E4 | E4 D2 C2 B,4 C4 | C6 B,2 C8 | C16 |] %26
w: |||||
w: |||||
w: * ti quan-|ti sem- pre|stan- * * * noin|can- toe ri-|so.|
w: |||||
w: * the- so-|ro tut- tie|san- * * * ti|fan- no fe-|sta.|
w: * ca- to-|re, tut- to´l|ciel´ * * * a|te s´in- chi-|na.|
V:2
 e4 e4 f6 e2 | d12 c4 | d4 d4 B8 | B8 c4 c4 | c8 c4 d4- | d4 d4 G8 | G8 f4 f4 | d12 c4 | d4 d4 B8 | %9
w: 1.O Ma- ri- *|a di-|a- na stel-|la, che ri-|lu- ci piú|* che´l so-|le, La mia|lin- gua|dir non po-|
w: 2.O Ma- ri- *|a di|sol ve- sti-|ta del- le|stel- le co-|* ro- na-|ta, del- la|lu- na|sei cal- za-|
w: |||||||||
w: 3.O Ma- ri- *|a quel|tuo bel man-|to, che tu|por- tial san-|* to cho-|ro, cam- poa-|zur- ro,e|stel- le do-|
w: |||||||||
w: |||||||||
 B8 c4 c4 | c4 G8 F4 | G4 G4 E8 | E16 || e4 e4 f6 e2 | d12 c4 | d4 d4 B8 | B8 c4 c4 | c8 c4 d4- | %18
w: le, O Ma-|ri- a quan-|to sei bel-|la.||||||
w: ta, spec- chio|sei * di|no- stra vi-|ta.||||||
w: ||||4.O Ma- ri- *|a quel|tuo bel vi-|so con que-|gl'oc- chiho- ne-|
w: ro, è fio-|ri- * to|tut- to quan-|to.||||||
w: ||||5.O Ma- ri- *|a tua|bion- da te-|sta co' ca-|pe- gli de|
w: ||||6.O Ma- ri- *|a del|ciel re- gi-|na, Ma- dre|del no- stro|
 d4 d4 G8 | G8 f4 f4 | d12 c4 | d4 d4 B8 | B8 c4 c4 | c4 G8 F4 | G4 G4 E8 | E16 |] %26
w: ||||||||
w: ||||||||
w: * stie san-|ti, per te|glian- gel|tut- ti quan-|ti sem- pre|stan- * noin|can- toe ri-|so.|
w: ||||||||
w: * fin o-|ro ri- sguar-|dan- doun|tal the- so-|ro tut- tie|san- * ti|fan- no fe-|sta.|
w: * Si- gno-|re, Spe- ran-|za del|pec- ca- to-|re, tut- to´l|ciel´ * a|te s´in- chi-|na.|
V:3
 c4 c4 c8 | B4 A2 G2 A4 G4 | A4 A4 G8 | G8 G4 G4 | G8 G4 A4- | A4 B4 c8 | c8 c4 c4 | %7
w: 1.O Ma- ri-|a * * * di-|a- na stel-|la, che ri-|lu- ci piú|* che´l so-|le, La mia|
w: 2.O Ma- ri-|a * * * di|sol ve- sti-|ta del- le|stel- le co-|* ro- na-|ta, del- la|
w: |||||||
w: 3.O Ma- ri-|a * * * quel|tuo bel man-|to, che tu|por- tial san-|* to cho-|ro, cam- poa-|
w: |||||||
w: |||||||
 B4 A2 G2 A4 G4 | A8 G8 | G8 G4 G4 | G4 F2 E2 D4 C4 | D4 D4 C8 | C16 || c4 c4 c8 | B4 A2 G2 A4 G4 | %15
w: lin- * * gua dir|non po-|le, O Ma-|ri- * * a quan-|to sei bel-|la.|||
w: lu- * * na sei|cal- za-|ta, spec- chio|sei * * * di|no- stra vi-|ta.|||
w: ||||||4.O Ma- ri-|a * * * quel|
w: zur- * * ro,e stel-|le do-|ro, è fio-|ri- * * * to|tut- to quan-|to.|||
w: ||||||5.O Ma- ri-|a * * * tua|
w: ||||||6.O Ma- ri-|a * * * del|
 A4 A4 G8 | G8 G4 G4 | G8 G4 A4- | A4 B4 c8 | c8 c4 c4 | B4 A2 G2 A4 G4 | A8 G8 | G8 G4 G4 | %23
w: ||||||||
w: ||||||||
w: tuo bel vi-|so con que-|gl'oc- chiho- ne-|* stie san-|ti, per te|glian- * * gel tut-|ti quan-|ti sem- pre|
w: ||||||||
w: bion- da te-|sta co' ca-|pe- gli de|* fin o-|ro ri- sguar-|dan- * * doun tal|the- so-|ro tut- tie|
w: ciel re- gi-|na, Ma- dre|del no- stro|* Si- gno-|re, Spe- ran-|za * * del pec-|ca- to-|re, tut- to´l|
 G4 F2 E2 D4 C4 | D4 D4 C8 | C16 |] %26
w: |||
w: |||
w: stan- * * * noin|can- toe ri-|so.|
w: |||
w: san- * * * ti|fan- no fe-|sta.|
w: ciel´ * * * a|te s´in- chi-|na.|
V:4
 C,4 C,4 F,8 | G,8 D,4 E,4 | D,8 G,,8 | G,,8 C,4 C,4 | C,8 E,4 D,4- | D,4 D,4 C,8 | C,8 F,4 F,4 | %7
w: 1.O Ma- ri-|a di- a-|na stel-|la, che ri-|lu- ci piú|* che´l so-|le, La mia|
w: 2.O Ma- ri-|a di sol|ve- sti-|ta del- le|stel- le co-|* ro- na-|ta, del- la|
w: |||||||
w: 3.O Ma- ri-|a quel tuo|bel man-|to, che tu|por- tial san-|* to cho-|ro, cam- poa-|
w: |||||||
w: |||||||
 G,8 D,4 E,4 | D,8 G,,8 | G,,8 C,4 C,4 | C,8 G,,4 A,,4 | G,,4 G,,4 G,8 | G,16 || C,4 C,4 F,8 | %14
w: lin- gua dir|non po-|le, O Ma-|ri- a quan-|to * bel-|la.||
w: lu- na sei|cal- za-|ta, spec- chio|sei * di|no- stra vi-|ta.||
w: ||||||4.O Ma- ri-|
w: zur- ro,e stel-|le do-|ro, è fio-|ri- * to|tut- to quan-|to.||
w: ||||||5.O Ma- ri-|
w: ||||||6.O Ma- ri-|
 G,8 D,4 E,4 | D,8 G,,8 | G,,8 C,4 C,4 | C,8 E,4 D,4- | D,4 D,4 C,8 | C,8 F,4 F,4 | G,8 D,4 E,4 | %21
w: |||||||
w: |||||||
w: a quel tuo|bel vi-|so con que-|gl'oc- chiho- ne-|* stie san-|ti, per te|glian- gel tut-|
w: |||||||
w: a tua bion-|da te-|sta co' ca-|pe- gli de|* fin o-|ro ri- sguar-|dan- doun tal|
w: a del ciel|re- gi-|na, Ma- dre|del no- stro|* Si- gno-|re, Spe- ran-|za del pec-|
 D,8 G,,8 | G,,8 C,4 C,4 | C,8 G,,4 A,,4 | G,,4 G,,4 G,8 | G,16 |] %26
w: |||||
w: |||||
w: ti quan-|ti sem- pre|stan- * noin|can- toe ri-|so.|
w: |||||
w: the- so-|ro tut- tie|san- * ti|fan- no fe-|sta.|
w: ca- to-|re, tut- to´l|ciel´ * a|te s´in- chi-|na.|

